vendor/shopware/storefront/Resources/app/storefront/dist/assets/icon/solid/lock-open.svg

<svg xmlns="http://www.w3.org/2000/svg" width="16" height="16" viewBox="0 0 16 16">
  <path fill="#758CA3" fill-rule="evenodd" d="M6,6 L11,6 C12.1045695,6 13,6.8954305 13,8 L13,14 C13,15.1045695 12.1045695,16 11,16 L5,16 C3.8954305,16 3,15.1045695 3,14 L3,8 C3,7.25971764 3.40219863,6.61337381 4,6.26756439 L4,3.5 C4,1.56700338 5.56700338,4.4408921e-16 7.5,0 L8.5,0 C10.4329966,-4.4408921e-16 12,1.56700338 12,3.5 L12,4 L10,4 L10,3.5 C10,2.67157288 9.32842712,2 8.5,2 L7.5,2 C6.67157288,2 6,2.67157288 6,3.5 L6,6 Z M5.25382206,8 L5,8 L5,14 L11,14 L11,8 L10.7461779,8 C10.515608,8.00596293 10.2637669,8 10,8 L6,8 C5.73623308,8 5.48439202,8.00596293 5.25382206,8 Z M8,9 C8.55228475,9 9,9.44771525 9,10 L9,11 C9,11.5522847 8.55228475,12 8,12 C7.44771525,12 7,11.5522847 7,11 L7,10 C7,9.44771525 7.44771525,9 8,9 Z"/>
</svg>

<svg xmlns="http://www.w3.org/2000/svg" width="16" height="16" viewBox="0 0 16 16"><path fill="#758CA3" fill-rule="evenodd" d="M6 6h5c1.1046 0 2 .8954 2 2v6c0 1.1046-.8954 2-2 2H5c-1.1046 0-2-.8954-2-2V8c0-.7403.4022-1.3866 1-1.7324V3.5C4 1.567 5.567 0 7.5 0h1C10.433 0 12 1.567 12 3.5V4h-2v-.5C10 2.6716 9.3284 2 8.5 2h-1C6.6716 2 6 2.6716 6 3.5V6zm-.7462 2H5v6h6V8h-.2538c-.2306.006-.4824 0-.7462 0H6c-.2638 0-.5156.006-.7462 0zM8 9c.5523 0 1 .4477 1 1v1c0 .5523-.4477 1-1 1s-1-.4477-1-1v-1c0-.5523.4477-1 1-1z"/></svg>
